X: 19689
T: Jenny Dang The Weaver
R: reel
M: 4/4
K: Dmajor
~B3A ~B3d|ABdB efdB|~A3F ~A3F|ABde fdeB|
dBBA ~B3d|ABdg fedB|~A3F ~A3F|ABde faef||
d3f edfe|dafa ~g2fe|~d2fd efgf|eaaf ~g2fe|
d2fd edfe|dafd ~g2dg|bgaf gfed|(3Bcd ef gfed||

